svg/emoji_u1f560.svg

<svg width="128" height="128" xmlns="http://www.w3.org/2000/svg" xmlns:xlink="http://www.w3.org/1999/xlink"><defs><path id="a" d="M63.83 6.15C32.07 6.15 6.23 32 6.23 63.76c0 31.76 25.85 57.6 57.6 57.6 31.77 0 57.6-25.84 57.6-57.6.01-31.77-25.83-57.61-57.6-57.61z"/></defs><use xlink:href="#a" overflow="visible" fill="#fff"/><path d="M63.83 127.51C28.68 127.51.08 98.91.08 63.76.08 28.6 28.68 0 63.83 0c35.16 0 63.76 28.6 63.76 63.76 0 35.15-28.6 63.75-63.76 63.75zm0-121.36C32.07 6.15 6.23 32 6.23 63.76c0 31.76 25.85 57.6 57.6 57.6 31.77 0 57.6-25.84 57.6-57.6.01-31.77-25.83-57.61-57.6-57.61z" fill="#3bb2df"/><ellipse cx="113.65" cy="63.76" rx="3.67" ry="3.68" fill="#2f2f2f"/><path d="M110.17 37.01a3.677 3.677 0 0 1-6.37 3.67 3.66 3.66 0 0 1 1.35-5.02c1.75-1.01 4-.41 5.02 1.35zM90.58 17.43a3.677 3.677 0 0 1-3.67 6.37 3.686 3.686 0 0 1-1.35-5.02 3.664 3.664 0 0 1 5.02-1.35zM37.08 17.42c1.76-1.01 4-.41 5.02 1.35a3.66 3.66 0 0 1-1.35 5.02 3.662 3.662 0 0 1-5.02-1.35c-1-1.75-.41-4 1.35-5.02zM17.5 37.01c1.02-1.75 3.27-2.36 5.02-1.34a3.677 3.677 0 0 1-3.67 6.37c-1.76-1.03-2.37-3.28-1.35-5.03zM10.34 63.76c0-2.03 1.65-3.67 3.67-3.67 2.03 0 3.67 1.64 3.67 3.67 0 2.03-1.65 3.68-3.67 3.68-2.03-.01-3.68-1.65-3.67-3.68zM17.5 90.51a3.677 3.677 0 0 1 1.35-5.02c1.76-1.01 4-.42 5.02 1.34a3.66 3.66 0 0 1-1.35 5.02 3.667 3.667 0 0 1-5.02-1.34zM37.08 110.09a3.69 3.69 0 0 1-1.35-5.02 3.68 3.68 0 0 1 5.02-1.35 3.688 3.688 0 0 1 1.35 5.02 3.668 3.668 0 0 1-5.02 1.35zM90.58 110.09a3.68 3.68 0 0 1-5.02-1.35c-1.02-1.76-.42-4 1.35-5.02a3.68 3.68 0 0 1 5.02 1.35c1.02 1.75.4 4.01-1.35 5.02zM110.17 90.51a3.67 3.67 0 0 1-5.02 1.34 3.677 3.677 0 0 1 3.67-6.37c1.75 1.02 2.36 3.28 1.35 5.03zM59.25 60.37h9.18v55.93h-9.18z" fill="#2f2f2f"/><g><g fill="#2f2f2f"><path d="M73.6 63.75c0 5.4-4.37 9.76-9.77 9.76-5.39 0-9.76-4.36-9.76-9.76 0-5.39 4.37-9.75 9.76-9.75 5.4 0 9.77 4.36 9.77 9.75z"/><path d="M73.6 63.75c0 5.4-4.37 9.76-9.77 9.76-5.39 0-9.76-4.36-9.76-9.76 0-5.39 4.37-9.75 9.76-9.75 5.4 0 9.77 4.36 9.77 9.75z"/></g><path fill="#2f2f2f" d="M58.55 61.57l8.92-2.21 8.81 35.55-8.9 2.21z"/><path d="M67.52 63.76c0 2.03-1.65 3.68-3.68 3.68a3.675 3.675 0 0 1 0-7.35 3.668 3.668 0 0 1 3.68 3.67z" fill="#fff"/></g><path d="M63.83 10.25c-2.03 0-3.67 1.65-3.67 3.67 0 2.03 1.64 3.67 3.67 3.67 2.04 0 3.68-1.65 3.68-3.67s-1.65-3.67-3.68-3.67z" fill="#2f2f2f"/></svg>

<svg width="128" height="128" style="enable-background:new 0 0 128 128;" xmlns="http://www.w3.org/2000/svg" xmlns:xlink="http://www.w3.org/1999/xlink">
  <g>
    <g>
      <g>
        <g>
          <defs>
            <path id="SVGID_1_" d="M63.83,6.15c-31.76,0-57.6,25.85-57.6,57.61c0,31.76,25.85,57.6,57.6,57.6c31.77,0,57.6-25.84,57.6-57.6 C121.44,31.99,95.6,6.15,63.83,6.15z"/>
          </defs>
          <use style="overflow:visible;fill:#FFFFFF;" xlink:href="#SVGID_1_"/>
          <clipPath id="SVGID_2_">
            <use style="overflow:visible;" xlink:href="#SVGID_1_"/>
          </clipPath>
        </g>
        <g>
          <path d="M63.83,127.51c-35.15,0-63.75-28.6-63.75-63.75C0.08,28.6,28.68,0,63.83,0 c35.16,0,63.76,28.6,63.76,63.76C127.59,98.91,98.99,127.51,63.83,127.51z M63.83,6.15c-31.76,0-57.6,25.85-57.6,57.61 c0,31.76,25.85,57.6,57.6,57.6c31.77,0,57.6-25.84,57.6-57.6C121.44,31.99,95.6,6.15,63.83,6.15z" style="fill:#3BB2DF;"/>
          <ellipse cx="113.65" cy="63.76" rx="3.67" ry="3.68" style="fill:#2F2F2F;"/>
          <path d="M110.17,37.01c1.01,1.76,0.41,4.01-1.35,5.02c-1.76,1.01-4.01,0.41-5.02-1.35 c-1.02-1.76-0.42-4.01,1.35-5.02C106.9,34.65,109.15,35.25,110.17,37.01z" style="fill:#2F2F2F;"/>
          <path d="M90.58,17.43c1.76,1.01,2.36,3.26,1.35,5.02c-1.01,1.76-3.26,2.36-5.02,1.35 c-1.75-1.01-2.36-3.26-1.35-5.02C86.58,17.01,88.83,16.41,90.58,17.43z" style="fill:#2F2F2F;"/>
          <path d="M37.08,17.42c1.76-1.01,4-0.41,5.02,1.35c1.02,1.76,0.42,4.01-1.35,5.02 c-1.75,1.02-4.01,0.42-5.02-1.35C34.73,20.69,35.32,18.44,37.08,17.42z" style="fill:#2F2F2F;"/>
          <path d="M17.5,37.01c1.02-1.75,3.27-2.36,5.02-1.34c1.76,1.01,2.36,3.26,1.35,5.02 c-1.01,1.76-3.26,2.36-5.02,1.35C17.09,41.01,16.48,38.76,17.5,37.01z" style="fill:#2F2F2F;"/>
          <path d="M10.34,63.76c0-2.03,1.65-3.67,3.67-3.67c2.03,0,3.67,1.64,3.67,3.67c0,2.03-1.65,3.68-3.67,3.68 C11.98,67.43,10.33,65.79,10.34,63.76z" style="fill:#2F2F2F;"/>
          <path d="M17.5,90.51c-1.01-1.76-0.41-4.01,1.35-5.02c1.76-1.01,4-0.42,5.02,1.34 c1.02,1.76,0.42,4.01-1.35,5.02C20.77,92.87,18.51,92.27,17.5,90.51z" style="fill:#2F2F2F;"/>
          <path d="M37.08,110.09c-1.76-1.02-2.35-3.27-1.35-5.02c1.02-1.76,3.26-2.36,5.02-1.35 c1.75,1.01,2.36,3.27,1.35,5.02C41.09,110.5,38.84,111.11,37.08,110.09z" style="fill:#2F2F2F;"/>
          <path d="M90.58,110.09c-1.76,1.01-4,0.41-5.02-1.35c-1.02-1.76-0.42-4,1.35-5.02 c1.75-1.01,4.01-0.41,5.02,1.35C92.95,106.82,92.33,109.08,90.58,110.09z" style="fill:#2F2F2F;"/>
          <path d="M110.17,90.51c-1.02,1.76-3.27,2.36-5.02,1.34c-1.76-1.02-2.36-3.25-1.35-5.02 c1.01-1.76,3.26-2.36,5.02-1.35C110.57,86.5,111.18,88.76,110.17,90.51z" style="fill:#2F2F2F;"/>
        </g>
      </g>
      <rect height="55.93" style="fill:#2F2F2F;" width="9.18" x="59.25" y="60.37"/>
      <g>
        <g>
          <path d="M73.6,63.75c0,5.4-4.37,9.76-9.77,9.76c-5.39,0-9.76-4.36-9.76-9.76c0-5.39,4.37-9.75,9.76-9.75 C69.23,54,73.6,58.36,73.6,63.75z" style="fill:#2F2F2F;"/>
          <path d="M73.6,63.75c0,5.4-4.37,9.76-9.77,9.76c-5.39,0-9.76-4.36-9.76-9.76c0-5.39,4.37-9.75,9.76-9.75 C69.23,54,73.6,58.36,73.6,63.75z" style="fill:#2F2F2F;"/>
        </g>
        <polygon points="58.55,61.57 67.47,59.36 76.28,94.91 67.38,97.12 " style="fill:#2F2F2F;"/>
        <path d="M67.52,63.76c0,2.03-1.65,3.68-3.68,3.68c-2.03,0-3.67-1.65-3.67-3.68c0-2.03,1.65-3.67,3.67-3.67 C65.87,60.08,67.52,61.73,67.52,63.76z" style="fill:#FFFFFF;"/>
      </g>
    </g>
    <path d="M63.83,10.25c-2.03,0-3.67,1.65-3.67,3.67c0,2.03,1.64,3.67,3.67,3.67c2.04,0,3.68-1.65,3.68-3.67 C67.51,11.9,65.86,10.25,63.83,10.25z" style="fill:#2F2F2F;"/>
  </g>
</svg>
